blockchains/ethereum/assets/0x8CE9137d39326AD0cD6491fb5CC0CbA0e089b6A9/logo.svg

<svg fill="none" height="250" viewBox="0 0 250 250" width="250" xmlns="http://www.w3.org/2000/svg" xmlns:xlink="http://www.w3.org/1999/xlink"><linearGradient id="a" gradientUnits="userSpaceOnUse" x1="17.0325" x2="217.646" y1="52.4478" y2="189.71"><stop offset="0" stop-color="#ff3b3b"/><stop offset="1" stop-color="#ff9914"/></linearGradient><clipPath id="b"><path d="m0 0h250v250h-250z"/></clipPath><g clip-path="url(#b)"><path d="m124.998 249.996c69.034 0 124.998-55.964 124.998-124.998 0-69.0345-55.964-124.998-124.998-124.998-69.0345 0-124.998 55.9635-124.998 124.998 0 69.034 55.9635 124.998 124.998 124.998z" fill="url(#a)"/><path clip-rule="evenodd" d="m120.472 45.0931c-7.258.8365-14.006 4.1479-19.108 9.377-3.8309 3.7929-7.4595 7.687-11.3409 11.5178-1.9428 1.9934-3.9067 3.932-5.8706 5.9002-1.9639 1.9681-4.1301 4.0584-6.1698 6.1234-2.0398 2.0651-3.7339 3.8773-5.622 5.7948-2.95 2.95-5.9001 5.9001-8.8501 8.8797-2.2631 2.3389-4.4757 4.7538-6.7135 7.0885-1.3191 1.3945-2.7393 2.6885-3.9826 4.1555-5.1307 6.26-7.9348 14.103-7.9356 22.197 0 .476 0 .965.0295 1.437.1049 4.648 1.3248 9.202 3.5569 13.28 1.2707 2.464 2.7423 4.819 4.3998 7.042 1.0958 1.542 1.8923 1.517 3.3336.324.2753-.229.5331-.478.7712-.746 1.4202-1.496 2.811-2.988 4.2565-4.48 2.0398-2.14 4.1301-4.277 6.1698-6.443 2.0398-2.167 4.2523-4.552 6.3932-6.79 1.0199-1.095 2.1072-2.107 3.1355-3.186 2.1872-2.313 4.3281-4.699 6.5154-6.987 2.1872-2.289 4.404-4.429 6.5449-6.667s4.7749-4.977 7.1855-7.464c2.4106-2.486 4.4543-4.577 6.6923-6.8651 2.912-3.0133 5.748-6.0982 8.631-9.1073 1.791-1.8417 3.633-3.6075 5.424-5.4239 2.486-2.4865 4.8-4.9729 7.24-7.4594s4.253-4.1554 6.343-6.2963c4.672-4.7201 9.337-9.4683 13.996-14.2445.3-.2965.582-.6118.843-.9441 1.146-1.4455 1.243-1.7658-.173-2.7856-2.162-1.7035-4.477-3.2032-6.916-4.4799-4.31-2.0157-9.01-3.0602-13.768-3.0596h-.236c-1.59.0003-3.177.1002-4.754.2992l-.025-.0253zm41.17 30.6216h-.299c-2.042.0007-4.058.4464-5.91 1.3059-1.852.8596-3.494 2.1124-4.812 3.6713-.235.2611-.484.5101-.746.7459l-7.611 7.4637c-2.486 2.4906-5.175 5.2005-7.788 7.8134-2.162 2.162-4.328 4.2771-6.465 6.4441-2.136 2.166-4.429 4.576-6.743 6.84-2.313 2.263-4.774 4.635-7.164 6.966l-8.484 8.555-15.7697 15.774c-6.9677 6.996-13.9256 13.978-20.8737 20.946-1.3402 1.319-1.3654 1.492 0 2.908 3.3336 3.371 6.7177 6.717 9.9501 10.114 1.9999 2.12 4.6393 3.526 7.5142 4.004 2.7124.546 5.5145.452 8.1843-.274 2.0002-.495 3.8464-1.478 5.3733-2.862l8.2605-7.977c1.938-1.863 3.906-3.705 5.82-5.597 3.831-3.793 7.611-7.611 11.442-11.379 3.11-3.059 6.296-6.094 9.452-9.153l12.951-12.622c4.029-3.958 8.083-7.936 12.163-11.893.272-.405.649-.727 1.091-.931.442-.205.932-.284 1.416-.23s.944.24 1.33.538c.385.297.682.695.858 1.149 2.073 3.029 3.182 6.613 3.181 10.283 0 .628-.033 1.256-.096 1.88-.335 3.7-1.861 7.192-4.35 9.95-2.988 3.212-6.169 6.246-9.271 9.331-2.213 2.187-4.476 4.328-6.693 6.54-2.861 2.837-5.672 5.724-8.534 8.56-.421.472-.817.969-1.264 1.416l-2.811 2.912c-2.107 2.107-4.252 4.155-6.322 6.267-2.069 2.111-4.446 4.581-6.658 6.886-.198.223-.422.371-.62.569-2.49 2.314-4.779 4.636-7.143 6.966-1.117 1.096-2.187 2.213-3.283 3.309-1.888 1.917-3.831 3.793-5.647 5.748-1.117 1.167-1.117 1.888.202 2.811 2.166 1.662 4.471 3.135 6.89 4.4 6.019 2.721 12.688 3.67 19.226 2.735 6.49-.77 12.578-3.544 17.418-7.936 3.679-3.232 6.967-6.865 10.397-10.346 2.487-2.491 4.977-5.15 7.637-7.712l7.189-7.241c2.192-2.212 4.354-4.429 6.57-6.616 2.217-2.187 4.973-4.8 7.46-7.266 2.486-2.465 4.977-4.973 7.463-7.611 1.983-2.019 3.814-4.181 5.479-6.469 3.104-4.69 5.042-10.053 5.652-15.644.337-2.777.337-5.584 0-8.361-.74-4.941-2.531-9.666-5.252-13.857-1.956-2.965-4.297-5.657-6.962-8.007-6.89-6.84-13.76-13.7305-20.498-20.7221-1.469-1.6356-3.266-2.9439-5.273-3.8399-2.008-.8959-4.182-1.3595-6.38-1.3607h-.093l-.746.1012z" fill="#fff" fill-rule="evenodd"/></g></svg>

<svg width="250" height="250" viewBox="0 0 250 250" fill="none" xmlns="http://www.w3.org/2000/svg">
<g clip-path="url(#clip0_50_11431)">
<path d="M124.998 249.996C194.032 249.996 249.996 194.032 249.996 124.998C249.996 55.9635 194.032 0 124.998 0C55.9635 0 0 55.9635 0 124.998C0 194.032 55.9635 249.996 124.998 249.996Z" fill="url(#paint0_linear_50_11431)"/>
<path fill-rule="evenodd" clip-rule="evenodd" d="M120.472 45.0931C113.214 45.9296 106.466 49.241 101.364 54.4701C97.5331 58.263 93.9045 62.1571 90.0231 65.9879C88.0803 67.9813 86.1164 69.9199 84.1525 71.8881C82.1886 73.8562 80.0224 75.9465 77.9827 78.0115C75.9429 80.0766 74.2488 81.8888 72.3607 83.8063C69.4107 86.7563 66.4606 89.7064 63.5106 92.686C61.2475 95.0249 59.0349 97.4398 56.7971 99.7745C55.478 101.169 54.0578 102.463 52.8145 103.93C47.6838 110.19 44.8797 118.033 44.8789 126.127C44.8789 126.603 44.8789 127.092 44.9084 127.564C45.0133 132.212 46.2332 136.766 48.4653 140.844C49.736 143.308 51.2076 145.663 52.8651 147.886C53.9609 149.428 54.7574 149.403 56.1987 148.21C56.474 147.981 56.7318 147.732 56.9699 147.464C58.3901 145.968 59.7809 144.476 61.2264 142.984C63.2662 140.844 65.3565 138.707 67.3962 136.541C69.436 134.374 71.6485 131.989 73.7894 129.751C74.8093 128.656 75.8966 127.644 76.9249 126.565C79.1121 124.252 81.253 121.866 83.4403 119.578C85.6275 117.289 87.8443 115.149 89.9852 112.911C92.1261 110.673 94.7601 107.934 97.1707 105.447C99.5813 102.961 101.625 100.87 103.863 98.5819C106.775 95.5686 109.611 92.4837 112.494 89.4746C114.285 87.6329 116.127 85.8671 117.918 84.0507C120.404 81.5642 122.718 79.0778 125.158 76.5913C127.598 74.1048 129.411 72.4359 131.501 70.295C136.173 65.5749 140.838 60.8267 145.497 56.0505C145.797 55.754 146.079 55.4387 146.34 55.1064C147.486 53.6609 147.583 53.3406 146.167 52.3208C144.005 50.6173 141.69 49.1176 139.251 47.8409C134.941 45.8252 130.241 44.7807 125.483 44.7813H125.247C123.657 44.7816 122.07 44.8815 120.493 45.0805L120.468 45.0552L120.472 45.0931ZM161.642 75.7147H161.343C159.301 75.7154 157.285 76.1611 155.433 77.0206C153.581 77.8802 151.939 79.133 150.621 80.6919C150.386 80.953 150.137 81.202 149.875 81.4378L142.264 88.9015C139.778 91.3921 137.089 94.102 134.476 96.7149C132.314 98.8769 130.148 100.992 128.011 103.159C125.875 105.325 123.582 107.735 121.268 109.999C118.955 112.262 116.494 114.634 114.104 116.965L105.62 125.52L89.8503 141.294C82.8826 148.29 75.9247 155.272 68.9766 162.24C67.6364 163.559 67.6112 163.732 68.9766 165.148C72.3102 168.519 75.6943 171.865 78.9267 175.262C80.9266 177.382 83.566 178.788 86.4409 179.266C89.1533 179.812 91.9554 179.718 94.6252 178.992C96.6254 178.497 98.4716 177.514 99.9985 176.13L108.259 168.153C110.197 166.29 112.165 164.448 114.079 162.556C117.91 158.763 121.69 154.945 125.521 151.177C128.631 148.118 131.817 145.083 134.973 142.024L147.924 129.402C151.953 125.444 156.007 121.466 160.087 117.509C160.359 117.104 160.736 116.782 161.178 116.578C161.62 116.373 162.11 116.294 162.594 116.348C163.078 116.402 163.538 116.588 163.924 116.886C164.309 117.183 164.606 117.581 164.782 118.035C166.855 121.064 167.964 124.648 167.963 128.318C167.963 128.946 167.93 129.574 167.867 130.198C167.532 133.898 166.006 137.39 163.517 140.148C160.529 143.36 157.348 146.394 154.246 149.479C152.033 151.666 149.77 153.807 147.553 156.019C144.692 158.856 141.881 161.743 139.019 164.579C138.598 165.051 138.202 165.548 137.755 165.995L134.944 168.907C132.837 171.014 130.692 173.062 128.622 175.174C126.553 177.285 124.176 179.755 121.964 182.06C121.766 182.283 121.542 182.431 121.344 182.629C118.854 184.943 116.565 187.265 114.201 189.595C113.084 190.691 112.014 191.808 110.918 192.904C109.03 194.821 107.087 196.697 105.271 198.652C104.154 199.819 104.154 200.54 105.473 201.463C107.639 203.125 109.944 204.598 112.363 205.863C118.382 208.584 125.051 209.533 131.589 208.598C138.079 207.828 144.167 205.054 149.007 200.662C152.686 197.43 155.974 193.797 159.404 190.316C161.891 187.825 164.381 185.166 167.041 182.604L174.23 175.363C176.422 173.151 178.584 170.934 180.8 168.747C183.017 166.56 185.773 163.947 188.26 161.481C190.746 159.016 193.237 156.508 195.723 153.87C197.706 151.851 199.537 149.689 201.202 147.401C204.306 142.711 206.244 137.348 206.854 131.757C207.191 128.98 207.191 126.173 206.854 123.396C206.114 118.455 204.323 113.73 201.602 109.539C199.646 106.574 197.305 103.882 194.64 101.532C187.75 94.692 180.88 87.8015 174.142 80.8099C172.673 79.1743 170.876 77.866 168.869 76.97C166.861 76.0741 164.687 75.6105 162.489 75.6093H162.396L161.65 75.7105L161.642 75.7147Z" fill="white"/>
</g>
<defs>
<linearGradient id="paint0_linear_50_11431" x1="17.0325" y1="52.4478" x2="217.646" y2="189.71" gradientUnits="userSpaceOnUse">
<stop stop-color="#FF3B3B"/>
<stop offset="1" stop-color="#FF9914"/>
</linearGradient>
<clipPath id="clip0_50_11431">
<rect width="250" height="250" fill="white"/>
</clipPath>
</defs>
</svg>
